static/characters/himawari/front-sitting-alt.svg

<svg xmlns="http://www.w3.org/2000/svg" width="160" height="182"><defs><radialGradient id="a"><stop offset=".6" stop-color="#fff"/><stop offset="1" stop-color="#fff" stop-opacity="0"/></radialGradient></defs><path fill="#6b8e23" d="M61.08 112.62C53 101.96 71.95 51.6 74.23 48.59c2.27-3.01 11.72-2.41 11.09.55-.64 2.95-11.86 37.78-8.2 48.36 3.67 10.58 31.46 7.96 33.13 9.38 1.67 1.41 1.54 10.83.13 12-1.42 1.16-41.21 4.41-49.3-6.26Z"/><path fill="gold" d="m63.17 21.08 5.08-17.2s11.33 12.87 11.42 12.79c.08-.09 16.16-11.09 16.25-11.17.08-.08-.67 11.83-.67 11.83s13.67-2.25 13.75-2.25c.08 0-3.83 8.67-3.83 8.67s13.25 1.42 13.16 1.42c-.08 0-6.33 9-6.33 9s15.12 3.91 15.12 3.83c0-.08-10.7 10.58-10.7 10.58l9.83 6.3L116 62.75s4.58 16.5 4.58 16.42c0-.09-15.16-8-15.16-8l-4.5 17.66-8.04-11.95-7.26 13.74-7.87-13.12-13.67 12.58-2.22-16.35-19.11 4.19L54 61.12l-16.25-5.24s13.5-10.3 13.75-10.38c.25-.08-14.12-9.62-14.12-9.62s16.37-1.42 16.62-1.5c.25-.09-5.38-16.38-5.38-16.63s14.55 3.33 14.55 3.33ZM38.25 35.5"/><path fill="peru" d="M76.38 18.5c27.62-3.75 32.37 17.5 37 27.75 4.62 10.25 2.37 23.5-18.63 27.63-21 4.12-36.37 3.24-39.5-13.88-3.13-17.12-6.5-37.75 21.13-41.5Z"/><path d="M33.25 38h5v-2.5h-5V38Zm5-5.01v2.51h15V38h2.5v2.5h2.5V43h2.5v2.5h17.5V43h2.5v-2.5h2.5v-5h2.5V38h2.5v2.5h2.5V43h17.5v-2.5h2.5V38h2.5v-5l-75-.01Z"/><path fill="#fff" d="M58.25 35.5v2.49h2.5V35.5h-2.5Zm2.49 2.51 2.5-.02.01 2.5-2.5.01-.01-2.49Zm2.51-2.51V38h2.5v-2.5h-2.5Zm2.5 2.5-.01 2.51 2.51-.01V38h-2.5Zm-2.49 2.51L63.25 43h2.5v-2.49h-2.49Zm4.99-.01.01 2.5h2.48l.01-2.5h-2.5Zm22.5-5V38h2.5l-.01-2.5h-2.49Zm2.5 2.5v2.5h2.5V38h-2.5Zm2.5-2.5V38h2.5v-2.5h-2.5Zm2.5 2.5v2.5l2.5-.01-.01-2.49h-2.49Z"/><path d="M87.36 64.33c.34 3.11 1.93 4.67 4.76 4.67 4.33 0 6.49-3.1 6.49-9.31 0-2.45-.81-5.35-2.42-8.69h-3.1c1.49 3.22 2.24 6.04 2.24 8.45 0 4.37-1.16 6.55-3.47 6.55-2.12 0-3.17-2.67-3.17-8h-2.66c0 5.33-1.06 8-3.17 8-2.31 0-3.47-2.18-3.47-6.55 0-2.41.75-5.23 2.23-8.45h-3.09c-1.61 3.34-2.42 6.24-2.42 8.69 0 6.21 2.16 9.31 6.48 9.31 2.75 0 4.34-1.56 4.77-4.67Z"/><path d="M97.78 68.44c1.03.15 6.97 28.44 7.1 30.37.12 1.94-16.66 7.93-17.54 7.22-.87-.71-6.81-31.62-6.03-33.5.78-1.87 15.44-4.25 16.47-4.09Z"/><path fill="gold" d="m101.42 85 1.22 5.16c-2.04-.68-15.72 8.22-16.4 9.11l-.84-4.2S96.46 84.99 101.42 85Z"/><path fill="silver" d="M99.36 76c-3.39-.84-15.96 8.24-15.96 8.24l2.07 11.07c1.16-1.05 11.61-9.01 16.02-10.11 0 0-2.18-9.2-2.13-9.2Z"/><path fill="orange" d="M97.2 69.27c.81.56 2.18 7 2.18 7-4.72 1.18-15.32 7.19-15.85 8.66 0 0-1.99-10.79-1.49-12.04s14.35-4.19 15.16-3.62Z"/><path fill="green" d="M62.59 81.95c-.39-.97-7.65 11.07-3.98 15.75 5.47 6.96 31.7-3.86 31.7-3.86s-22.22-4.71-25.79-5.32c-3.57-.61-1.53-5.59-1.93-6.57Zm37.35 7.36s2.06-11.12 3.68-10.19c1.63.94 3.13 13.88 1.5 14.07-1.62.19-5.18-3.88-5.18-3.88Z"/><circle cx="70" cy="38" r="22" fill="url('#a')"/><circle cx="102" cy="38" r="22" fill="url('#a')"/></svg>

<?xml version="1.0" encoding="UTF-8" standalone="no"?>
<!DOCTYPE svg PUBLIC "-//W3C//DTD SVG 20010904//EN"
              "http://www.w3.org/TR/2001/REC-SVG-20010904/DTD/svg10.dtd">

<svg xmlns="http://www.w3.org/2000/svg"
     width="160" height="182">
  <defs>
    <radialGradient id="henshin">
      <stop offset="0.6" stop-color="white" stop-opacity="1" />
      <stop offset="1" stop-color="white" stop-opacity="0" />
    </radialGradient>
  </defs>
  <path fill="olivedrab"
        d="M 61.08,112.62
           C 53.00,101.96 71.95,51.60 74.23,48.59
             76.50,45.58 85.95,46.18 85.32,49.14
             84.68,52.09 73.46,86.92 77.12,97.50
             80.79,108.08 108.58,105.46 110.25,106.88
             111.92,108.29 111.79,117.71 110.38,118.88
             108.96,120.04 69.17,123.29 61.08,112.62 Z" />
  <path fill="gold"
        d="M 63.17,21.08
           C 63.17,21.08 68.25,3.88 68.25,3.88
             68.25,3.88 79.58,16.75 79.67,16.67
             79.75,16.58 95.83,5.58 95.92,5.50
             96.00,5.42 95.25,17.33 95.25,17.33
             95.25,17.33 108.92,15.08 109.00,15.08
             109.08,15.08 105.17,23.75 105.17,23.75
             105.17,23.75 118.42,25.17 118.33,25.17
             118.25,25.17 112.00,34.17 112.00,34.17
             112.00,34.17 127.12,38.08 127.12,38.00
             127.12,37.92 116.42,48.58 116.42,48.58
             116.42,48.58 126.25,54.88 126.25,54.88
             126.25,54.88 116.00,62.75 116.00,62.75
             116.00,62.75 120.58,79.25 120.58,79.17
             120.58,79.08 105.42,71.17 105.42,71.17
             105.42,71.17 100.92,88.83 100.92,88.83
             100.92,88.83 92.88,76.88 92.88,76.88
             92.88,76.88 85.62,90.62 85.62,90.62
             85.62,90.62 77.75,77.50 77.75,77.50
             77.75,77.50 64.08,90.08 64.08,90.08
             64.08,90.08 61.86,73.73 61.86,73.73
             61.86,73.73 42.75,77.92 42.75,77.92
             42.75,77.92 54.00,61.12 54.00,61.12
             54.00,61.12 37.75,55.88 37.75,55.88
             37.75,55.88 51.25,45.58 51.50,45.50
             51.75,45.42 37.38,35.88 37.38,35.88
             37.38,35.88 53.75,34.46 54.00,34.38
             54.25,34.29 48.62,18.00 48.62,17.75
             48.62,17.50 63.17,21.08 63.17,21.08 Z
           M 38.25,35.50M 38.25,35.50" />
  <path fill="peru"
        d="M 76.38,18.50
           C 104.00,14.75 108.75,36.00 113.38,46.25
             118.00,56.50 115.75,69.75 94.75,73.88
             73.75,78.00 58.38,77.12 55.25,60.00
             52.12,42.88 48.75,22.25 76.38,18.50 Z" />
  <path fill="black"
        d="M 33.25,38.00
           C 33.25,38.00 38.25,38.00 38.25,38.00
             38.25,38.00 38.25,35.50 38.25,35.50
             38.25,35.50 33.25,35.50 33.25,35.50
             33.25,35.50 33.25,38.00 33.25,38.00 Z
           M 38.25,32.99
           C 38.25,32.99 38.25,35.50 38.25,35.50
             38.25,35.50 53.25,35.50 53.25,35.50
             53.25,35.50 53.25,38.00 53.25,38.00
             53.25,38.00 55.75,38.00 55.75,38.00
             55.75,38.00 55.75,40.50 55.75,40.50
             55.75,40.50 58.25,40.50 58.25,40.50
             58.25,40.50 58.25,43.00 58.25,43.00
             58.25,43.00 60.75,43.00 60.75,43.00
             60.75,43.00 60.75,45.50 60.75,45.50
             60.75,45.50 78.25,45.50 78.25,45.50
             78.25,45.50 78.25,43.00 78.25,43.00
             78.25,43.00 80.75,43.00 80.75,43.00
             80.75,43.00 80.75,40.50 80.75,40.50
             80.75,40.50 83.25,40.50 83.25,40.50
             83.25,40.50 83.25,35.50 83.25,35.50
             83.25,35.50 85.75,35.50 85.75,35.50
             85.75,35.50 85.75,38.00 85.75,38.00
             85.75,38.00 88.25,38.00 88.25,38.00
             88.25,38.00 88.25,40.50 88.25,40.50
             88.25,40.50 90.75,40.50 90.75,40.50
             90.75,40.50 90.75,43.00 90.75,43.00
             90.75,43.00 108.25,43.00 108.25,43.00
             108.25,43.00 108.25,40.50 108.25,40.50
             108.25,40.50 110.75,40.50 110.75,40.50
             110.75,40.50 110.75,38.00 110.75,38.00
             110.75,38.00 113.25,38.00 113.25,38.00
             113.25,38.00 113.25,33.00 113.25,33.00
             113.25,33.00 38.25,32.99 38.25,32.99 Z" />
  <path fill="white"
        d="M 58.25,35.50
           C 58.25,35.50 58.25,37.99 58.25,37.99
             58.25,37.99 60.75,37.99 60.75,37.99
             60.75,37.99 60.75,35.50 60.75,35.50
             60.75,35.50 58.25,35.50 58.25,35.50 Z
           M 60.74,38.01
           C 60.74,38.01 63.24,37.99 63.24,37.99
             63.24,37.99 63.25,40.49 63.25,40.49
             63.25,40.49 60.75,40.50 60.75,40.50
             60.75,40.50 60.74,38.01 60.74,38.01 Z
           M 63.25,35.50
           C 63.25,35.50 63.25,38.00 63.25,38.00
             63.25,38.00 65.75,38.00 65.75,38.00
             65.75,38.00 65.75,35.50 65.75,35.50
             65.75,35.50 63.25,35.50 63.25,35.50 Z
           M 65.75,38.00
           C 65.75,38.00 65.74,40.51 65.74,40.51
             65.74,40.51 68.25,40.50 68.25,40.50
             68.25,40.50 68.25,38.00 68.25,38.00
             68.25,38.00 65.75,38.00 65.75,38.00 Z
           M 63.26,40.51
           C 63.26,40.51 63.25,43.00 63.25,43.00
             63.25,43.00 65.75,43.00 65.75,43.00
             65.75,43.00 65.75,40.51 65.75,40.51
             65.75,40.51 63.26,40.51 63.26,40.51 Z
           M 68.25,40.50
           C 68.25,40.50 68.26,43.00 68.26,43.00
             68.26,43.00 70.74,43.00 70.74,43.00
             70.74,43.00 70.75,40.50 70.75,40.50
             70.75,40.50 68.25,40.50 68.25,40.50 Z
           M 90.75,35.50
           C 90.75,35.50 90.75,38.00 90.75,38.00
             90.75,38.00 93.25,38.00 93.25,38.00
             93.25,38.00 93.24,35.50 93.24,35.50
             93.24,35.50 90.75,35.50 90.75,35.50 Z
           M 93.25,38.00
           C 93.25,38.00 93.25,40.50 93.25,40.50
             93.25,40.50 95.75,40.50 95.75,40.50
             95.75,40.50 95.75,38.00 95.75,38.00
             95.75,38.00 93.25,38.00 93.25,38.00 Z
           M 95.75,35.50
           C 95.75,35.50 95.75,38.00 95.75,38.00
             95.75,38.00 98.25,38.00 98.25,38.00
             98.25,38.00 98.25,35.50 98.25,35.50
             98.25,35.50 95.75,35.50 95.75,35.50 Z
           M 98.25,38.00
           C 98.25,38.00 98.25,40.50 98.25,40.50
             98.25,40.50 100.75,40.49 100.75,40.49
             100.75,40.49 100.74,38.00 100.74,38.00
             100.74,38.00 98.25,38.00 98.25,38.00 Z" />
  <path fill="black"
        d="M 87.36,64.33
           C 87.70,67.44 89.29,69.00 92.12,69.00
             96.45,69.00 98.61,65.90 98.61,59.69
             98.61,57.24 97.80,54.34 96.19,51.00
             96.19,51.00 93.09,51.00 93.09,51.00
             94.58,54.22 95.33,57.04 95.33,59.45
             95.33,63.82 94.17,66.00 91.86,66.00
             89.74,66.00 88.69,63.33 88.69,58.00
             88.69,58.00 86.03,58.00 86.03,58.00
             86.03,63.33 84.97,66.00 82.86,66.00
             80.55,66.00 79.39,63.82 79.39,59.45
             79.39,57.04 80.14,54.22 81.62,51.00
             81.62,51.00 78.53,51.00 78.53,51.00
             76.92,54.34 76.11,57.24 76.11,59.69
             76.11,65.90 78.27,69.00 82.59,69.00
             85.34,69.00 86.93,67.44 87.36,64.33 Z" />
  <path fill="black"              
        d="M 97.78,68.44
           C 98.81,68.59 104.75,96.88 104.88,98.81
             105.00,100.75 88.22,106.74 87.34,106.03
             86.47,105.32 80.53,74.41 81.31,72.53
             82.09,70.66 96.75,68.28 97.78,68.44 Z" />
  <path fill="gold"
        d="M 101.42,85.00
           C 101.42,85.00 102.64,90.16 102.64,90.16
             100.60,89.48 86.92,98.38 86.24,99.27
             86.24,99.27 85.40,95.07 85.40,95.07
             85.40,95.07 96.46,84.99 101.42,85.00 Z" />
  <path fill="silver"
        d="M 99.36,76.00
           C 95.97,75.16 83.40,84.24 83.40,84.24
             83.40,84.24 85.47,95.31 85.47,95.31
             86.63,94.26 97.08,86.30 101.49,85.20
             101.49,85.20 99.31,76.00 99.36,76.00 Z" />
  <path fill="orange"
        d="M 97.20,69.27
           C 98.01,69.83 99.38,76.27 99.38,76.27
             94.66,77.45 84.06,83.46 83.53,84.93
             83.53,84.93 81.54,74.14 82.04,72.89
             82.54,71.64 96.39,68.70 97.20,69.27 Z" />
  <path fill="green"
        d="M 62.59,81.95
           C 62.20,80.98 54.94,93.02 58.61,97.70
             64.08,104.66 90.31,93.84 90.31,93.84
             90.31,93.84 68.09,89.13 64.52,88.52
             60.95,87.91 62.99,82.93 62.59,81.95 Z
           M 99.94,89.31
           C 99.94,89.31 102.00,78.19 103.62,79.12
             105.25,80.06 106.75,93.00 105.12,93.19
             103.50,93.38 99.94,89.31 99.94,89.31 Z" />
  <circle cx="70" cy="38" r="22" fill="url('#henshin')" />
  <circle cx="102" cy="38" r="22" fill="url('#henshin')" />
</svg>
